X:1
T:Corde natus
T:Corde natus
T:André Vierendeels (17/09/10)
C:André Vierendeels
C:(17/09/10)
%%score [ 1 2 3 4 ]
L:1/8
Q:1/4=120
M:2/2
K:C
V:1 treble nm="Soprano" snm="S"
V:2 treble nm="Alto" snm="A"
V:3 treble-8 nm="Tenor" snm="T"
V:4 bass nm="Bass" snm="B"
V:1
 E4 F4 | E4 D4 | G4 A4 | A4 !fermata!G4 | A4 B4 | c4 A4 | G4 A2 c2 | !fermata!c8 | c4 d2 d2 | %9
w: Cor- de|na- tus|ex Pa-|ren- tis|an- te|mun- di|ex- au- di-|um,|Al- pha et|
 c4 B4 | A4 G4 | A2- c2 !fermata!c4 | c4 c4 | c4 G4 | A4 F4 | !fermata!E8 | A4 G4 | F4 E4 | %18
w: O cog-|no- mi-|na- * tur|i- pse|fons et|clau- su-|la;|o- mni-|um, quae|
 D4 ^C4 | D2- F2 !fermata!F4 | F4 F4 | F4 F4 | E4 D4 | !fermata!E8 | F4 G4 | A4 F4 | F2- E2 D2 F2 | %27
w: sunt, fu-|e- * runt,|quae- que|post fu-|tu- ra|sunt,|quae- que|post fu-|tu- * * *|
 !fermata!E8 |] %28
w: sunt|
V:2
 B,4 D4 | C4 A,4 | E4 F4 | F4 !fermata!D4 | F4 G4 | G4 F4 | D4 F2 G2 | !fermata!F8 | E2- F2 G2 G2 | %9
w: Cor- de|na- tus|ex Pa-|ren- tis|an- te|mun- di|ex- au- di-|um,|Al _ pha et|
 AGFE GFED | E2 DC E4 | FGA_B !fermata!A4 | A4 F4 | E2 DC B,4 | E4 DCB,A, | !fermata!B,8 | %16
w: O _ _ _ cog- * * *|no- * * mi-|na- * * * tur|i- pse|fons _ _ et|clau- su- * * *|la,|
 E4 ECDE | C2- D2 B,4 | E4 E4 | A,2- _B,2 !fermata!C4 | D2 C_B, A,4 | _B,4 C=B,CD | ^C4 A,4 | %23
w: o- mni- * * *|um, _ quae|sunt, fu-|e- * runt|quae- * * que|post fu- * * *|tu- *|
 !fermata!C8 | CDEF E4 | DEFE D4 | D4 _B,2 D2 | !fermata!^C8 |] %28
w: sunt,|quae- * * * que|post _ _ _ fu-|tu- ra _|sunt.|
V:3
 G4 A4 | A4 F4 | G4 c4 | A4 !fermata!B4 | A4 d4 | e4 c4 | _B4 F2 E2 | !fermata!A8 | G4 B2 B2 | %9
w: Cor- de|na- tus|ex Pa-|ren- tis|an- te|mun- di|ex- au- di-|um,|Al- pha et|
 c4 d4 | c4 B4 | d2 c_B !fermata!c4 | e4 A4 | G2 FE D2- G2 | cBAG A2 GF | !fermata!^G8 | %16
w: O cog-|no- mi-|na- * * tur|i- pse|fons _ _ et _|clau- * * * * * *|la,|
 AB c2 cABc | A4 GF E2 | A2 GF A4 | F2- D2 !fermata!A4 | A3 G F4 | DEFG A3 G | A4 F4 | %23
w: o- * * mni- * * *|m, quae _ _|sunt, _ _ fu-|e- * runt|quae- * que|post _ _ _ fu- *|tu- *|
 !fermata!G8 | A4 c_BAG | FGAG _B4 | A4 F2 A2 | !fermata!A8 |] %28
w: sunt,|quae- que _ _ _|post _ _ _ fu-|tu- ra _|sunt.|
V:4
 E,4 D,4 | A,,4 D,4 | C,4 F,4 | D,4 !fermata!G,4 | D,4 G,4 | C,4 F,4 | G,4 D,2 C,2 | !fermata!F,8 | %8
w: Cor- de|na- tus|ex Pa-|ren- tis|an- te|mun- di|ex- au- di-|um,|
 C,4 G,2 G,2 | F,4 G,4 | A,4 E,4 | D,E,F,G, !fermata!F,4 | A,4 F,4 | C,4 G,,4 | A,,4 D,4 | %15
w: Al- pha et|O cog-|no- mi-|na- * * * tur|i- pse|fons et|clau- su-|
 !fermata!E,8 | A,,4 C,4 | F,2- D,2 E,D,C,B,, | A,,4 A,,4 | D,2- _B,,2 !fermata!F,4 | %20
w: la|o- mni-|um _ quae _ _ _|sunt, fu-|e- * runt|
 D,2- F,2 C,A,, F,,2 | _B,,4 F,,2 A,,D, | A,,4 D,4 | !fermata!C,8 | F,4 C,4 | D,4 _B,,4 | %26
w: quae- * que _ _|post fu- * *|tu- *|sunt,|que- que|post fu-|
 D,4 (_B,,2 D,2) | !fermata!A,,8 |] %28
w: tu- * *|sunt.|

